X:1
T:What can I do, my dearest - Kirbye
T:#
%%score { 1 | 2 } 3 4 { ( 5 6 ) | ( 7 8 ) }
L:1/8
Q:1/4=108
M:4/4
K:F
V:1 treble nm="Soprano I" snm="S"
V:2 treble 
V:3 treble-8 nm="Tenor" snm="T"
V:4 bass nm="Bass" snm="B"
V:5 treble nm="Practice"
V:6 treble 
V:7 bass 
V:8 bass 
V:1
"^What can I do, my dearest" G6 AB | c6 B2 | A4 G4 | z2 c3 B A2 | %4
w: What can I|do, my|dear- est,|of the sweet|
 G2 F2"^George Kirbye\n(1570-1634)" G4 |[M:4/4] A4 z2 c2- | cc d2 _e2 d2 | c4 d4 | z2 d2 d2 d2 | %9
w: help de- pri-|ved, of|* the sweet help de-|pri- ved|Of those thy|
 ^c4 d4- | d4 z2 d2 | _e2 B2 c4- | c2 B2 A4 | =B4 z4 | G6 A_B | c2 A2 A4 | A4 z2 B2- | %17
w: fair eyes,|* by|which I still|* have li-|ved?|What can I|do, my dear-|est, of|
 BA G2 A2 c2 | (=B2 c4 B2) | c4 G4- | G2 AB c4- | c2 B2 A4 | G8 | z2 c3 B A2 | G2 F2 G4 | %25
w: * the sweet help de-|pri\- * *|ved; what|* can I do,|* my dear-|est,|of the sweet|help de- pri-|
 A4 z2 A2 | A2 A2 ^G4 | A2 E2 F2 C2 | D2 (EF) G2 A2 | z2 c2 B2 B2 | A8 | A2 A2 B2 =F2 | %32
w: ved Of|those thy fair|eyes, by which I|still have * li- ved,|I still have|li-|ved, by which I|
 G2 (AB) c2 d2 | z2 f2 _e2 e2 | d8 | !fermata!d8 || B2 BA B2 c2 | d8 | z8 | z4 e4- | e4 d4- | %41
w: still have * li- ved,|I still have|li-|ved?|How can my soul en-|dure,||thus|* charg'd|
 d4 c4 | B8- | B8 | B8 | A4 z2 A2 | A2 G2 A2 =B2 | c4 z2 G2 | G2 ^F2 G2 (G2- | G=F F4 E2) | F8 | %51
w: * with|sad\-|||ness, Ex-|ile from thy dear|sight, ex-|ile from thy dear||sight,|
 z2 G2 G2 A2 | (BABc B2 AG | ^F2) D2 z4 | z2 d2 d4 | d8 | !courtesy!_B2 BA B2 c2 | d8 | z8 | %59
w: so full of|glad\- * * * * * *|* ness,|of glad-|ness?|How can my soul en-|dure,||
 z4 e4 | d4 c4 | B8- | B8 | B8 | A4 z2 A2 | A2 G2 A2 =B2 | c4 z2 G2 | G2 ^F2 G2 (G2- | G=F F4 E2) | %69
w: thus|* with|sad\-|||ness, Ex-|ile from thy dear|sight, ex-|ile from thy dear||
 F8 | z2 G2 G2 A2 | (BABc B2 AG | ^F2) D2 z4 | z2 d2 d4 | d8 | _B2 BA B2 c2 | d8 | z8 | z4 e4- | %79
w: sight,|so full of|glad\- * * * * * *|* ness,|of glad-|ness?|How can my soul en-|dure,||thus|
 e4 d4- | d4 c4 | B8- | B8 | B8 | A4 z2 A2 | A2 G2 A2 =B2 | c4 z2 G2 | G2 ^F2 G4 | (E2 =F4 E2) | %89
w: * charg'd|* with|sad\-|||ness, Ex-|ile from thy dear|sight, ex-|ile from thy|dear * *|
 F8 | z2 G2 G2 A2 | (BABc B2 AG) | ^F2 D2 D2 =E2 | (^FEFG) F2 A2 | (G2 =F_E) D4 | z2 G2 B2 c2 | %96
w: sight,|so full of|glad\- * * * * * *|ness, so full of|glad\- * * * ness, of|glad\- * * ness,|so full of|
 (dcd_e d2 cB | A8) | !fermata!=B8 |] %99
w: glad\- * * * * * *||ness?|
V:2
 z4 E4- | E2 FG A2 G2 | ^F4 G2 E2- | ED C2 D2 F2 | (E2 F4 E2) |[M:4/4] F2 c3 B A2 | G2 F2 (G2 B2- | %7
w: What|* can I do my|dear- est, of|* the sweet help de-|pri\- * *|ved, of the sweet|help de- pri\- *|
 B2 A2) B4 | z2 F2 F2 B2 | A4 A2 A2 | B2 F2 G2 B2 | (AG) F2 G2 A2- | AG (G4 ^F2) | G8 | z8 | %15
w: * * ved|Of those thy|fair eyes, by|which I still have|li\- * ved, I still|* have li\- *|ved?||
 z2 F2 =E4 | F2 F3 E D2 | G4 z2 G2 | G8 | G8 | E6 FG | A2 G2 ^F4 | G4 z2 G2- | GG A2 B2 c2 | c8 | %25
w: My dear-|est, of the sweet|help de-|pri-|ved;|what can I|do, my dear-|est, of|* the sweet help de-|pri-|
 c4 z2 c2 | c2 d2 =B4 | A8 | z4 z2 A2 | B2 F2 G4- | G2 F2 E4 | ^F4 z4 | z4 z2 d2 | _e2 B2 c4- | %34
w: ved Of|those thy fair|eyes,|by|which I still|* have li-|ved,|by|which I still|
 c2 B2 A4 | !fermata!=B8 || G2 GF G2 A2 | B8 | A2 AG A2 B2 | c8 | A8- | A8 | G2 F2 (F4- | %43
w: * have li-|ved?|How can my soul en-|dure,|how can my soul en-|dure,|thus||charg'd with sad\-|
 F4 E2 D2 | E8) | F4 z2 c2 | c3 c c2 d2 | e4 z4 | z2 c2 c2 =B2 | c2 (A2 G4) | A8 | z8 | %52
w: ||ness, Ex-|ile from thy dear|sight,|ex- ile from|thy dear *|sight,||
 z2 G2 B2 c2 | (dcd_e d2 cB | A8) | =B8 | G2 GF G2 A2 | B8 | A2 AG A2 B2 | c8 | A8 | G2 F2 (F4- | %62
w: so full of|glad- * * * * * *||ness?|How can my soul en-|dure,|how can my soul en-|dure,||charg'd with sad\-|
 F4 E2 D2 | E8) | F4 z2 c2 | c3 c c2 d2 | e4 z4 | z2 c2 c2 =B2 | c2 (A2 G4) | A8 | z8 | %71
w: ||ness, Ex-|ile from thy dear|sight,|ex- ile from|thy dear *|sight,||
 z2 G2 B2 c2 | (dcd_e d2 cB | A8) | =B8 | G2 GF G2 A2 | B8 | A2 AG A2 B2 | c8 | A8- | A8 | %81
w: so full of|glad\- * * * * * *||ness?|How can my soul en-|dure,|how can my soul en-|dure~,|thus||
 G2 F2 (F4- | F4 E2 D2 | E8) | F4 z2 c2 | c3 c c2 d2 | e4 z4 | z2 c2 c2 =B2 | c2 (A2 G4) | A8 | %90
w: chaig'd with sad\-|||ness, Ex-|ile from thy dear|sight,|ex- ile from|thy dear *|sight,|
 z8 | z2 G2 B2 c2 | (dcd_e d2 cB) | A4 z2 !courtesy!=F2 | G2 A2 (BABc | B6 AG) | %96
w: |so full of|glad\- * * * * * *|ness, so|full of glad\- * * *||
 ^F2 D2 D2 !courtesy!=E2 | (^FEFG F4) | !fermata!G8 |] %99
w: ness, so full of|glad\- * * * *|ness?|
V:3
 z4 c4- | c2 de f2 g2 | d4 G2 c2- | cB A2 G2 F2 | c8 |[M:4/4][K:treble-8] F4 z2 f2- | %6
w: What|* can I do, my|dear- est, of|* the sweet help de-|pri-|ved, of|
 f_e d2 c2 B2 | f4 B4 | z2 B2 B2 G2 | A4 d4 | z2 d2 _e2 B2 | c2 d2 _e2 c2 | d8 | G4 _B4- | %14
w: * the sweet help de-|pri- ved|Of those thy|fair eyes,|by~which * I|still, I still have|li-|ved? What|
 B2 cd _e4- | e2 d2 ^c4 | d2 d3 c B2 | d2 g3 f e2 | d2 c2 d4 | e8 | c6 de | f2 g2 d4 | G2 g3 f e2 | %23
w: * can I do,|* my dear-|est, of the sweet|help, of the sweet|help de- pri-|ved;|what can I|do my dear-|est, of the sweet|
 d2 c2 d2 f2 | (e2 f4 e2) | f4 z2 f2 | f2 f2 e4 | e4 z2 e2 | f2 c2 d2 f2 | (ed) c2 d2 e2- | %30
w: help de- priv'd, de-|pri\- * *|ved Of|those thy fair|eyes, by|which I still have|li\- * ved, I still|
 ed (d4 c2) | d4 z2 a2 | b2 f2 g2 b2 | (ag) f2 g2 a2 | (^f2 g4 f2) | !fermata!g8 || z8 | %37
w: * have li\- *|ved, by|which I still have|li\- * ved, still have|li\- * *|ved?||
 d2 dc d2 e2 | f3 e f2 g2 | a4 e4 | f8 | e8 | (d6 c2 | B8- | B8) | c4 z2 f2- | ff e2 f2 d2 | %47
w: How can my soul en-|dure, my soul en-|dure, thus|charg'd|with|sad\- *|||ness, Ex\-|* ile from thy dear|
 c2 e3 e d2 | e2 (c2 d4) | c8 | z2 c2 c2 d2 | (edef) e2 f2 | (gfga g2 fe) | d2 d2 d2 =e2 | %54
w: sight, ex- ile from|thy dear *|sight,|so full of|glad\- * * * ness, of|glad\- * * * * * *|ness, so full of|
 (^fefg f4) | g8 | z8 | d2 dc d2 e2 | f3 e f2 g2 | a4 e4 | e8 | (d6 c2 | B8- | B8) | c4 z2 f2- | %65
w: glad\- * * * *|ness?||How can my soul en-|dure, iuy soul en-|dure, thus|with|sad\- *|||ne~ss, Ex\-|
 ff e2 f2 d2 | c2 e3 e d2 | e2 (c2 d4) | c8 | z2 c2 c2 d2 | (edef) e2 f2 | (gfga g2 fe) | %72
w: * ile from thy dear|sight, ex- ile from|thy dear *|sight,|so full of|glad\- * * * ness, of|glad\- * * * * * *|
 d2 d2 d2 =e2 | (^fefg f4) | g8 | z8 | d2 dc d2 e2 | f3 e f2 g2 | a4 e4 | f8 | e8 | (d6 c2 | B8- | %83
w: ness, so full of|glad\- * * * *|ness?||How can my soul en-|dure, my soul en-|dure, thus|charg'd|with|sad\- *||
 B8) | c4 z2 f2- | ff e2 f2 d2 | c2 e3 e d2 | e2 (c2 d4) | c8 | z2 c2 c2 d2 | (edef) e2 f2 | %91
w: |ness, Ex\-|* ile from thy dear|sight, ex- ile from|thy dear *|sight,|so full of|glad\- * * * ness, of|
 (gfga g2 fe) | d2 G2 B2 c2 | (dcd_e) d2 !courtesy!=f2 | (_e2 dc B2 G2) | d4 z4 | z2 A2 B2 c2 | %97
w: glad\- * * * * * *|ness, so full of|glad\- * * * ness, of|glad\- * * * *|ness,|so full of|
 (dcd_e d4) | !fermata!d8 |] %99
w: glad\- * * * *|ness?|
V:4
 z8 | z8 | z8 | z8 | z8 |[M:4/4] z8 | z8 | z8 | z8 | z8 | z8 | z8 | z8 | z4 G,4- | G,2 A,B, C4- | %15
w: |||||||||||||What|* can I do,|
 C2 D2 A,4 | D,4 z2 G,2- | G,F, E,2 D,2 C,2 | G,8 | C,8 | z8 | z8 | z4 z2 C2- | CB, A,2 G,2 F,2 | %24
w: * my dear-|est, of|* the sweet help de-|pri-|ved;|||of|* the sweet help de-|
 C8 | F,4 z2 F,2 | F,2 D,2 E,4 | A,8 | z2 A,2 B,2 F,2 | G,2 A,2 B,2 G,2 | A,8 | D,8 | %32
w: pri-|ved Of|those thy fair|eyes,|by which I|still, I still have|li-|ved,|
 z2 D2 _E2 B,2 | C2 D2 _E2 C2 | D8 | !fermata!G,8 || z8 | B,2 B,A, B,2 C2 | D8 | A,8- | A,8 | A,8 | %42
w: by which I|still, I still have|li-|ved?||How can my soul en-|dure,|thus|||
 B,6 A,2 | G,8- | G,8 | F,8 | z8 | z2 C2 C2 =B,2 | C2 A,2 G,4 | z8 | z2 F,2 A,2 B,2 | %51
w: charg'd with|sad\-||ness,||Ex- ile from|thy dear sight,||so full of|
 (CB,CD C2) (B,A, | G,8) | z2 G,2 B,2 C2 | (DCD_E D4) | G,8 | z8 | B,2 B,A, B,2 C2 | D8 | A,8- | %60
w: glad\- * * * * ness, *||so full of|glad\- * * * *|ness?||How can my soul en-|dure,|thus|
 A,8 | B,6 A,2 | G,8- | G,8 | F,8 | z8 | z2 C2 C2 =B,2 | C2 A,2 G,4 | z8 | z2 F,2 A,2 B,2 | %70
w: |charg'd with|sad\-||ness,||Ex- ile from|thy dear sight,||so full of|
 (CB,CD C2) (B,A, | G,8) | z2 G,2 B,2 C2 | (DCD_E D4) | G,8 | z8 | B,2 B,A, B,2 C2 | D8 | A,8- | %79
w: glad\- * * * * ness, *||so full of|glad\- * * * *|ness?||How can my soul en-|dure,|thus|
 A,8 | A,8 | B,6 A,2 | G,8- | G,8 | F,8 | z8 | z2 C2 C2 =B,2 | C2 A,2 G,4 | z8 | z2 F,2 A,2 B,2 | %90
w: ||charg'd with|sad\-||ness,||Ex- ile from|thy dear sight,||so full of|
 (CB,CD C2) (B,A, | G,8) | z8 | z4 z2 D,2 | _E,2 F,2 (G,F,G,_A, | G,6 F,_E, | D,8- | D,8) | %98
w: glad\- * * * * ness, *|||so|full of glad\- * * *||||
 !fermata!G,8 |] %99
w: ness?|
V:5
 G6 AB | c6 B2 | A4 G4 | x2 c3 B A2 | G2 F2 G4 |[M:4/4] A4 x2 c2- | cc d2 _e2 d2 | c4 d4 | %8
 z2 d2 d2 d2 | ^c4 d4- | d4 x2 d2 | _e2 B2 c4- | c2 B2 A4 | =B4 z4 | G6 A_B | c2 A2 A4 | %16
 A4 x2 B2- | BA G2 A2 c2 | =B2 c4 B2 | c4 G4- | G2 AB c4- | c2 B2 A4 | G8 | x2 c3 B A2 | G2 F2 G4 | %25
 A4 z2 A2 | A2 A2 ^G4 | A2 E2 F2 C2 | D2 EF G2 A2 | x2 c2 B2 B2 | A8 | A2 A2 B2 =F2 | G2 AB c2 d2 | %33
 x2 f2 _e2 e2 | d8 | !fermata!d8 || B2 BA B2 c2 | d8 | x8 | x4 e4- | e4 d4- | d4 c4 | B8- | B8 | %44
 B8 | A4 z2 A2 | A2 G2 A2 =B2 | c4 z2 G2 | G2 ^F2 G2 G2- | G=F F4 E2 | F8 | z2 G2 G2 A2 | %52
 BABc B2 AG | ^F2 D2 x4 | z2 d2 d4 | d8 | !courtesy!_B2 BA B2 c2 | d8 | x8 | x4 e4 | d4 c4 | B8- | %62
 B8 | B8 | A4 z2 A2 | A2 G2 A2 =B2 | c4 z2 G2 | G2 ^F2 G2 G2- | G=F F4 E2 | F8 | z2 G2 G2 A2 | %71
 BABc B2 AG | ^F2 D2 x4 | z2 d2 d4 | d8 | _B2 BA B2 c2 | d8 | x8 | x4 e4- | e4 d4- | d4 c4 | B8- | %82
 B8 | B8 | A4 z2 A2 | A2 G2 A2 =B2 | c4 z2 G2 | G2 ^F2 G4 | E2 =F4 E2 | F8 | z2 G2 G2 A2 | %91
 BABc B2 AG |[I:staff +1] ^F2 D2 D2 =E2 |[I:staff -1] ^FEFG F2 A2 | G2 =F_E D4 | z2 G2 B2 c2 | %96
 dcd_e d2 cB | A8 | =B8 |] %99
V:6
 z4 E4- | E2 FG A2 G2 | ^F4 G2 E2- | ED C2 D2 F2 | E2 F4 E2 |[M:4/4] F2 c3 B A2 | G2 F2 G2 B2- | %7
 B2 A2 B4 | z2 F2 F2 B2 | A4 A2 A2 | B2 F2 G2 B2 | AG F2 G2 A2- | AG G4 ^F2 | G8 | x8 | x2 F2 =E4 | %16
 F2 F3 E D2 | G4 x2 G2 | G8 | G8 | E6 FG | A2 G2 ^F4 | G4 x2 G2- | GG A2 B2 c2 | c8 | c4 z2 c2 | %26
 c2 d2 =B4 | A8 | x4 x2 A2 | B2 F2 G4- | G2 F2 E4 | ^F4 x4 | x4 x2 d2 | _e2 B2 c4- | c2 B2 A4 | %35
 =B8 || G2 GF G2 A2 | B8 | A2 AG A2 B2 | c8 | A8- | A8 | G2 F2 F4- | F4 E2 D2 | E8 | F4 z2 c2 | %46
 c3 c c2 d2 | e4 x4 | x2 c2 c2 =B2 | c2 A2 G4 | A8 | x8 | x2 G2 B2 c2 | dcd_e d2 cB | A8 | =B8 | %56
 G2 GF G2 A2 | B8 | A2 AG A2 B2 | c8 | A8 | G2 F2 F4- | F4 E2 D2 | E8 | F4 z2 c2 | c3 c c2 d2 | %66
 e4 x4 | x2 c2 c2 =B2 | c2 A2 G4 | A8 | x8 | x2 G2 B2 c2 | dcd_e d2 cB | A8 | =B8 | G2 GF G2 A2 | %76
 B8 | A2 AG A2 B2 | c8 | A8- | A8 | G2 F2 F4- | F4 E2 D2 | E8 | F4 z2 c2 | c3 c c2 d2 | e4 x4 | %87
 x2 c2 c2 =B2 | c2 A2 G4 | A8 | x8 | x2 G2 B2 c2 | dcd_e d2 cB | A4 x2 !courtesy!=F2 | G2 A2 BABc | %95
 B6 AG | ^F2 D2 D2 !courtesy!=E2 | ^FEFG F4 | !fermata!G8 |] %99
V:7
 x4[I:staff -1] C4- | C2 DE F2 G2 |[I:staff +1] D4 G,2 C2- | CB, A,2 G,2 F,2 | C8 | %5
[M:4/4] F,4 z2 F2- | F_E D2 C2 B,2 | F4 B,4 | z2 B,2 B,2 G,2 | A,4 D4 | z2 D2 _E2 B,2 | %11
 C2 D2 _E2 C2 | D8 | G,4 _B,4- | B,2 CD _E4- | E2 D2 ^C4 |[I:staff -1] D2 D3 C[I:staff +1] B,2 | %17
 D2[I:staff -1] G3 F E2 |[I:staff +1] D2 C2 D4 |[I:staff -1] E8 | C6 DE | F2 G2 D4 | %22
[I:staff +1] G,2[I:staff -1] G3 F E2 | D2[I:staff +1] C2 D2[I:staff -1] F2 |[I:staff +1] E2 F4 E2 | %25
[I:staff -1] F4[I:staff +1] z2[I:staff -1] F2 | F2 F2 E4 |[I:staff +1] E4 x2[I:staff -1] E2 | %28
 F2[I:staff +1] C2 D2[I:staff -1] F2 | ED[I:staff +1] C2 D2 E2- | ED D4 C2 | %31
[I:staff -1] D4[I:staff +1] z2[I:staff -1] A2 | B2 F2 G2 B2 | AG[I:staff +1] F2 G2 A2 | ^F2 G4 F2 | %35
[I:staff -1] G8 ||[I:staff +1] z8 | D2 DC D2 E2 |[I:staff -1] F3 E F2 G2 | A4 E4 |[I:staff +1] F8 | %41
 E8 | D6 C2 | B,8- | B,8 |[I:staff -1] C4[I:staff +1] x2[I:staff -1] F2- | F2 E2 F2 D2 | %47
[I:staff +1] C2 E3 E D2 | E2 C2 D4 | C8 | z2 C2 C2 D2 | EDEF E2[I:staff -1] F2 | (GFGA G2 FE) | %53
[I:staff +1] D2 D2 D2 =E2 | ^FEFG F4 |[I:staff -1] G8 |[I:staff +1] z8 | D2 DC D2 E2 | %58
[I:staff -1] F3 E F2 G2 | A4 E4 |[I:staff +1] E8 | D6 C2 | B,8- | B,8 | %64
[I:staff -1] C4[I:staff +1] x2[I:staff -1] F2- |[I:staff +1] FF E2 F2 D2 | C2 E3 E D2 | E2 C2 D4 | %68
 C8 | z2 C2 C2 D2 | EDEF E2[I:staff -1] F2 | GFGA G2 FE |[I:staff +1] D2 D2 D2 =E2 | ^FEFG F4 | %74
[I:staff -1] G8 |[I:staff +1] z8 | D2 DC D2 E2 |[I:staff -1] F3 E F2 G2 | A4 E4 | F8 | %80
[I:staff +1] E8 | D6 C2 | B,8- | B,8 |[I:staff -1] C4[I:staff +1] x2[I:staff -1] F2- | %85
[I:staff +1] FF E2 F2 D2 | C2 E3 E D2 | E2 C2 D4 | C8 | z2 C2 C2 D2 | EDEF E2[I:staff -1] F2 | %91
 GFGA G2 FE |[I:staff +1] D2 G,2 B,2 C2 | DCD_E D2[I:staff -1] !courtesy!=F2 | %94
 _E2 DC[I:staff +1] B,2 G,2 | D4 x4 | z2 A,2 B,2 C2 |[I:staff -1] DCD_E D4 | D8 |] %99
V:8
 z8 | z8 | x8 | x8 | x8 |[M:4/4] x8 | x8 | x8 | x8 | x8 | x8 | x8 | x8 | x4 G,4- | G,2 A,B, C4- | %15
 C2 D2 A,4 | D,4 z2 G,2- | G,F, E,2 D,2 C,2 | G,8 | C,8 | z8 | z8 | x4 z2 C2- | CB, A,2 G,2 F,2 | %24
 C8 | F,4 z2 F,2 | F,2 D,2 E,4 | A,8 | z2 A,2 B,2 F,2 | G,2 A,2 B,2 G,2 | A,8 | D,8 | %32
 z2 D2 _E2 B,2 | C2 D2 _E2 C2 | D8 | !fermata!G,8 || z8 | B,2 B,A, B,2 C2 | D8 | A,8- | A,8 | A,8 | %42
 B,6 A,2 | G,8- | G,8 | F,8 | z8 | x2 C2 C2 =B,2 | C2 A,2 G,4 | x8 | z2 F,2 A,2 B,2 | %51
 CB,CD C2 B,A, | G,8 | x2 G,2 B,2 C2 | DCD_E D4 | G,8 | z8 | B,2 B,A, B,2 C2 | D8 | A,8- | A,8 | %61
 B,6 A,2 | G,8- | G,8 | F,8 | x8 | x2 C2 C2 =B,2 | C2 A,2 G,4 | x8 | z2 F,2 A,2 B,2 | %70
 CB,CD C2 B,A, | G,8 | x2 G,2 B,2 C2 | DCD_E D4 | G,8 | x8 | F,2 F,E, F,2 G,2 | A,8 | E,8- | E,8 | %80
 A,8 | B,6 A,2 | G,8- | G,8 | F,8 | x8 | x2 C2 C2 =B,2 | C2 A,2 G,4 | x8 | z2 F,2 A,2 B,2 | %90
 CB,CD C2 B,A, | G,8 | x8 | x4 x2 D,2 | _E,2 F,2 G,F,G,_A, | G,6 F,_E, | D,8- | D,8 | %98
 !fermata!G,8 |] %99

